X:6
T:The Doune of Invernoughty
R:reel
C:Alexander Walker
B:Alexander Walker Collection
D:Dan Hughie MacEachern 
Z:Paul Stewart Cranford (P.S.C.), <http://www.cranfordpub.com>
L:1/8
Q:333
M:C|
K:Edor
Be e/e/e gefd|ecdB AFDF|Ee e/e/e gefd|1BdAF E/E/E EF:|2BdAF E/E/E E||
||e|BEGE BEEc|defe dDAF|BEGB egfe|dBAF E/E/E Ee|
BEGE BEEc|defe dDDF|Bgfa gbef|dBAF E/E/E E z|]
